img/p/putler.com.svg

<svg xmlns="http://www.w3.org/2000/svg" viewBox="0 0 145.81 168.28"><path d="m31.58 116.22 41.35 23.87 48.39-27.94v-34.05l24.49-14.42v62.49l-72.93 42.11-41.3-23.85z" fill="#01a1b9"/><path d="m0 126.29v-84.21l72.88-42.08 72.93 42.05v14.05l-72.93 42.13-48.39-27.94v69.93zm109.18-77.17-36.25-20.93-36.25 20.93 36.25 20.88z" fill="#005ca7"/></svg>

<svg xmlns="http://www.w3.org/2000/svg" viewBox="0 0 145.81 168.28"><path d="m31.58 116.22 41.35 23.87 48.39-27.94V78.1l24.49-14.42v62.49l-72.93 42.11-41.3-23.85z" fill="#01a1b9"/><path d="M0 126.29V42.08L72.88 0l72.93 42.05V56.1L72.88 98.23 24.49 70.29v69.93zm109.18-77.17L72.93 28.19 36.68 49.12 72.93 70z" fill="#005ca7"/></svg>
